X:1
T:Title
%%score { ( 1 4 ) | ( 2 3 ) }
L:1/8
M:4/4
K:Ab
V:1 treble nm="Grand Piano"
V:4 treble 
V:2 bass 
V:3 bass 
V:1
 z4 z2[Q:1/4=106] C>C | F4- F>=E F>G | A4 B2 [Ac]>[Ac] | [Fc]4 [B,FB]2 [A,FA]2 |[M:3/4] [=EG]6 | %5
[M:1/4] A>B |[M:4/4] c>B A>G [CF]4- | [CF]>=E F>A G4- | G2 z2 [A,F]4 | [A,C]2 A>B [Ac]4 | %10
 [Fd]2 [Fd]>[Fd] [Fd]4 | [=Ec]2 [B,EB]>[EA] [EG]4 |[M:1/4] A>B |[M:4/4] c>B A>G [CF]4- | %14
 [CF]>=E F>A G4- | G2 z2 [A,F]4 | [A,C]2 A>G F4 |[M:2/4] C2 D>D | [A,C]4- | [A,C]2 C>C | F2 A2 | %21
 [=EG]4- | [EG]2 C>C | [=EG]2 [EB]2 | [FA]4- | [FA]2 F>F | c2 d2 | c>B A>G | F2 [CA]2 | [=EG]4- | %30
 [EG]2 C>C | F2 A2 | [=EG]4- | [EG]2 C>C | [=EG]2 [EB]2 | [FA]4- | [FA]2 F>F | c2 d2 | c>B A>G | %39
 F2 [CA]2 |[M:4/4] [=EG]6 A>G | [A,F]4 [A,C]2 z2 | [A,F]4[K:bass] [A,C]2 [F,B,D]>[F,B,D] | %43
 [A,C]6 z2 |] %44
V:2
 z4 z2 C,>C, | C6 z2 | [F,A,F]4 [D,B,D]2 [F,C]2 | [F,A,]4 D,2 D,>G |[M:3/4] C,2 G,,2 C,,2 | %5
[M:1/4] [F,CF]2 |[M:4/4] [F,A,F]4 F,2 C,2 | F,,4 B,2 G,2 | z2[K:treble] A>G[K:bass] F,2 C,2 | %9
 F,,4 [F,C]4 | [D,B,]2 [B,D]2 [B,,B,]4 | [C,C]2 z z/ A,/ C,>G,, C,,2 |[M:1/4] [F,CF]2 | %13
[M:4/4] [F,A,F]4 F,2 C,2 | F,,4 B,2 G,2 | z2[K:treble] A>G[K:bass] F,2 C,2 | F,,4 [F,A,C]4 | %17
[M:2/4] C,2 D,>D, | F,2 C,2 | F,,4 | [F,A,C]2 [F,CF]2 | B,G, C,2- | C,4 | [C,B,]2 [C,G,]2 | %24
 F,C, F,,2- | F,,4 | [F,A,F]2 [F,B,F]2 | [F,A,F]2 z2 | [F,A,C]2 [F,,F,]2 | C,G,, C,,2- | C,,4 | %31
 [F,A,C]2 [F,CF]2 | B,G, C,2- | C,4 | [C,B,]2 [C,G,]2 | F,C, F,,2- | F,,4 | [F,A,F]2 [F,B,F]2 | %38
 [F,A,F]2 z2 | [F,A,C]2 [F,,F,]2 |[M:4/4] C,2 G,,=E,, C,,2[K:treble] F>=E | %41
 F,2 C,2 z2[K:treble] A>G | F,2 C,2 F,,2 B,,>B,, | B,,2 C,A,, F,,2 z2 |] %44
V:3
 x8 | [F,A,]8 | x8 | x8 |[M:3/4] x6 |[M:1/4] x2 |[M:4/4] x8 | x8 | C,4[K:treble][K:bass] z4 | x8 | %10
 x8 | z2 C,2 z4 |[M:1/4] x2 |[M:4/4] x8 | x8 | C,4[K:treble][K:bass] z4 | x8 |[M:2/4] x4 | x4 | %19
 x4 | x4 | x4 | x4 | x4 | x4 | x4 | x4 | x4 | x4 | x4 | x4 | x4 | x4 | x4 | x4 | x4 | x4 | x4 | %38
 x4 | x4 |[M:4/4] x6[K:treble] x2 | z4 F,,4[K:treble] | x8 | x8 |] %44
V:4
 x8 | x8 | x8 | x8 |[M:3/4] x6 |[M:1/4] x2 |[M:4/4] x8 | z4 =E4 | x8 | x8 | x8 | x8 |[M:1/4] x2 | %13
[M:4/4] x8 | z4 =E4 | x8 | x8 |[M:2/4] x4 | x4 | x4 | x4 | x4 | x4 | x4 | x4 | x4 | x4 | x4 | x4 | %29
 x4 | x4 | x4 | x4 | x4 | x4 | x4 | x4 | x4 | x4 | x4 |[M:4/4] x8 | x8 | x4[K:bass] x4 | %43
 F,2 z2 z4 |] %44

